X:8
T: Graf und Nonne (Die Nonne)
N: Q0155G
O: Mitteleuropa, Deutschland (DDR) , Brandenburg, Soldin, Adamsdorf
R: Ballade, Standesunterschied, vergebliche Werbung, Liebe, Klage, Tod
M: 2/4
L: 1/16
K: F
FA | c3fcBAG | A4G2
G2 | A2A2BABd | c4z2
c2 | f2f2edc2 | d4c4 | B4A2
c2 | d2cBA2G2 | F4z2

